X:1
T:Jesus Christus Unser Heiland, 865.76
T:Jesus Christus Unser Heiland, 865.76
T:Johann Crüger, 1649
T:Public Domain Courtesy of the Cyber Hymnal™
C:Johann Crüger, 1649
Z:Public Domain
Z:Courtesy of the Cyber Hymnal™
%%score ( 1 2 ) ( 3 4 )
L:1/8
Q:1/4=108
M:4/4
K:F
V:1 treble 
V:2 treble 
V:3 bass 
V:4 bass 
V:1
 [DG]4 [DG]4 | [DF]2 [DG]2 [FA]2 [EG]2 | [CF]4 [B,D]4 | [CF]2 [EG]2 [FA]4 | [DG]2 [D^F]2 [DG]4 | %5
 [DB]4 [DA]2 [B,G]2 | [DA]4 [DG]2 z [EG] | [DF]2 [EG]2 [FA]2 [EG]2 | [CF]4 [B,D]4 | [DG]4 [EG]4 | %10
 ([FA]3 [EG]) [DF]2 [^CE]2 | D8 |] %12
V:2
 x8 | x8 | x8 | x8 | x8 | x8 | x8 | x8 | x8 | x8 | x8 | D8 |] %12
V:3
 G,4 [G,,B,]4 | [D,A,]2 [G,B,]2 [F,C]2 [C,C]2 | [F,,A,]4 [B,,F,]4 | [A,,A,]2 [G,,B,]2 [F,,C]4 | %4
 [G,,B,]2 [D,A,]2 [G,,=B,]4 | G,4 [D,^F,]2 [_E,G,-]2 | (G,2 ^F,2) [G,,=B,]2 z [C,C] | %7
 [D,A,]2 [G,B,]2 [F,C]2 [C,C]2 | [F,,A,]4 [B,,F,]4 | [G,,B,]4 [C,C]4 | C4 [D,A,]2 [A,,A,]2 | %11
 [D,^F,]8 |] %12
V:4
 G,4 x4 | x8 | x8 | x8 | x8 | G,4 x4 | D,4 x4 | x8 | x8 | x8 | (F,3 C,) x4 | x8 |] %12

